X:1
T:Paradox
T:Paradox
T:Sonny Rollins Transcribed by Wille Suurla 
T:ws 2020-02-05
C:Sonny Rollins
Z:ws 2020-02-05
L:1/8
Q:1/4=180
M:4/4
K:F
V:1 treble-8 nm="Piano" snm="Pno."
V:1
"^Swing" z CEG EF (3Acd |:S"Bbmaj7""^A""_Latin drs" f3 e"E7" z d (3_dc=B | %2
"Am7" e z z e-"D7" e_A (3=Acd |"Abm7" (3_efd e2"Db7" z _A=Ad |"Bm7" z DE.^F"E7" z .F E2 | %5
"A7" z2 ^c =c"Eb7" z B (3A_AG |"Ab7" c2 d2"G13" e2 f2 |"C7" b4"Gb7" e3 f- |1"F" f4 z ^cde :|2 %9
"F" f4 z4 ||"_N.C. Drum fill""^B" z8 | z4 z"_Swing drs" ^cde |"Bbmaj7" f^cdB"E7" =B_A=AB | %13
"Am7" c^GAE"D7" (3F/=G/F/^C D2 |"Gm7""_N.C. Drum fill" z8 | z4 z ^cde |"Bbmaj7" f^cdB"E7" =B_A=AB | %17
"Am7" c^GAE"D7" (3F/=G/F/^C D2 ||"Bbmaj7""^A""_Latin drs" f3 e"E7" z d (3_dc=B | %19
"Am7" e z z e-"D9" e_A (3=Acd |"Abm7" (3_efd e2"Db7" z _A=Ad |"Bm7" z DE.^F"E7" z .F E2 | %22
"A7" z2 ^c =c"Eb7" z B (3A_AG |"Ab7" c2 d2"G13" e2 f2!dacoda! ||"C7" b4"Gb7" e2 z f | %25
 z"_Solo fill N.C." A (3cfc'- (3c'_c'b (3:2:2a2 =c'- || %26
 (3c'_c'b (3:2:2a2 =c'- (3c'_c'b (3:2:2a2 a- | (3a^g=g (3:2:2f2 a- (3a^g=g (3:2:2f2 z | %28
 z _dfa fdAF!D.S.! ||O"C7" b4"Gb7" e3 f- |"F" f8 |] %31

